X:143
T:Gorgie Farm
C:Nigel Gatherer
Z:Nigel Gatherer
M:6/8
L:1/8
K:G
D|G2 G BGB|cAF GBd|gbg faf|ege d2 B|cde fga|gdB GAB|
cec BdB|AGF G2:|F/G/|A2 A AFD|DFA cAF|GBd gbg|afd d2 F/G/|
A2 A AFD|DFA cBA|BdB cAF|G3 Bcd|e3 gec|d3 gdB|
cec BdB|ABG FED|G2 G BGB|cAF GAB|cec BdB|AGF G2|]
<end>
<start>
